X:11
T:Amazing Grace (#007)
C:Traditional (Scotland); Lyrics: John Newton
M:3/4
L:1/4
%N:End with Chorus
K:D
|A,/2B,/2|"D"D2 F/2D/2|"D7"F2 E|"G"D2 B,
w:1~A-_maz-ing_ grace, how sweet the
w:2~Twas_ grace that_ taught my heart to
w:3~Through_ ma-ny_ dan-gers, toils and
w:4~When_ we've been_ there ten thou-sand
|"D"A,2 A,/2B,/2|D2 F/2D/2|"Bm"F2 E/2F/2|"A"A3-
w:sound, that_ saved a_ wretch like_ me!
w:fear, and_ grace my_ fears re-_lieved;
w:snares, I_ have al-_rea-dy_ come;
w:years, bright_ shin-ing_ as the_ sun;
|"A7"A2 F|"D"A2 F/2A/2|"D7"F D/2D/2 A,|"G"B,2 D/2B,/2
w:_I once was_ lost__ but now I am
w:_how pre-cious_ did__ that grace ap-_
w:_'twas grace that_ brought__ me safe thus_
w:_we've no less_ days__ to sing God's_
|"D"A,2 "^TAG"A,/2B,/2|"Bm"D2 F/2D/2|"A7"F2 E
w:found, was_ blind, but_ now I
w:pear, the_ hour I_ first be
w:far, and_ grace will_ lead me
w:praise, than_ when we_ first be-
|"D"D3-|!fermata!D2:||
w:see._
w:lieved._
w:home._
w:gan._

%Uncloudy Day - 008
%%scale 1.2
